X:1
T:Title
%%score 1 2 3
L:1/8
M:4/2
K:C
V:1 treble-8 nm="Part_1"
V:2 bass nm="Part_2"
V:3 bass nm="Part_3"
V:1
 z4 A4 E4 G4 | D2 FF E4 D2 d3 c BA | GF E4 A4 A2 A4 |[M:2/2] z A F/E/F/G/ A2 D2 | z4 z2 z D | %5
w: Ho- mo- qui-|am fe- cit Ce- nam ma- * * *|* * * * * gnam|Et mi- sit ser- vum su- um|Et|
[M:4/2] E^FGD E/F/G/A/B/c/d/B/ ^c d2 c d4 | B4 c4 c3 A ^G A2 G |[M:2/2] AE/^F/ G2 =FA/B/ c2 | %8
w: mi- sit ser- vum su- * * * * * * * * * * um|ho- ra ce- ne di- * ce-|re in- vi- ta- tis in- vi- ta-|
 c G2 G A/G/A/B/ ^c/dc/ |[M:4/2] d4 B4 A2 z/ A/G/F/ E2 z/ G/F/E/ |[M:2/2] D2 z2 _B3 d | %11
w: tis ut ve- ni- * * * * * *|rent qui- a pa- ra- ta sunt pa- ra- ta|sunt om- ni-|
 ^c2 z d B2 =cG | c>B A2 GF G2 | Acdd/c/ _BA z A | d6 ^cc | d>d B2 cc B2 | A8 | z2 A2 ^G A2 G | %18
w: a ve- ni- te co-|me- di- te pa- nem me-|um ve- ni- te ve- ni- te ve-|ni- te co-|e- di- te pa- nem me-|um|et bi- * bi-|
 A4 z4 |[M:4/2] z4 z2 d2 ^c d2 c d4 | B4 A8 A4 | d2 dB c>B AG/F/ E4 A4 | %22
w: te|et bi- * bi- te|vi- num quod|mi- scu\-i * vo- * * * * * bis|
[M:6/2] d4 _B2 A2 GAB3/2 c/d/c/B/A/ G2 ^F8 |] %23
w: mi- scu- i vo- * * * * * * * * bis|
V:2
 D,4 A,,4 C,4 G,,2 G,,A,, | B,,/A,,/B,,/C,/ D,4 ^C,2 D,4 G,3 F, | %2
w: Ho- mo qui- dam fe- cit|Coe- * * * * * nam ma- *|
 E,D,C,B,, A,,3 G,,/F,,/ E,,4 A,,A, F,/E,/F,/G,/ |[M:2/2] A,A,, D,2 z A,,B,,^C, | %4
w: * * * * * * * * gnam et mi- sit ser- vum|su- * um et mi- sit|
 D,E, F,/E,/F,/G,/A,/G,/F,/E,/ D,3/2C,/4B,,/4 |[M:4/2] A,,2 G,,2 C,2 G,,2 A,,4 D,4 | %6
w: ser- vum su- * * * * * * * * * *|* um ser- vum su- um|
 G,,4 C,4 C,2 A,,2 E,3 E, |[M:2/2] A,,2 z B,,/^C,/ D,2 =C,A,,/B,,/ | C,2 B,,2 A,,D, A,,2 | %9
w: ho- ra ce- ne di- ce-|re in- vi- ta- tis in vi-|ta- tis ut ve- ni-|
[M:4/2] D,4 E,4 A,,4 z/ E,/D,/C,/ B,,2 |[M:2/2] z/ D,/C,/B,,/ A,,2 _B,,3 B,, | %11
w: rent qui- a pa- ra ta sunt|pa- ra- ta sunt om- ni-|
 A,,A, ^F,2 G,G,,C,>B,, | A,,2 F,,/G,,/A,,/B,,/ C,D, C,2 | F,,F,,_B,,B,,/A,,/ G,,D, z D, | %14
w: a ve- ni- te co- me- di-|te pa- * * * * nem me|um ve- ni- te ve- ni- te ve-|
 _B,,4 A,,3 A,, | D,>D, G,,2 C,A,, E,2 | A,,2 D,2 ^C, D,2 C, | D,4 B,,4 | A,,2 D,2 ^C, D,2 C, | %19
w: ni- te co-|me- di- te pa- nem me-|um et bi- * bi-|te vi-|num et bi- * bi-|
[M:4/2] D,4 B,,4 A,,4 D,4 | G,2 G,E, F,3/2 E,/D,C,/B,,/ A,,4 D,4 | z8 z8 | %22
w: te vi- num quod|mi- scu- i vo- * * * * * bis||
[M:6/2] D,4 G,2 ^F,2 G,4 G,,4 D,8 |] %23
w: mi- scu- i vo- * bis|
V:3
 D,4 A,,4 C,4 G,,4 | G,,2 D,2 A,,4 D,4 G,3 F, | E,D,C,B,, A,,3 G,,/F,,/ E,,4 A,,A,, D,2 | %3
[M:2/2] A,,2 D,2 A,,A,,B,,^C, | D,E,F,/E,/F,/G,/A,/G,/F,/E,/ D,3/2C,/4B,,/4 | %5
[M:4/2] A,,2 G,,2 C,2 G,,2 A,,4 D,4 | G,,4 C,4 C,2 A,,2 E,4 | %7
[M:2/2] A,,A,,B,,B,,/^C,/ D,2 =C,A,,/B,,/ | C,2 B,,2 A,,D, A,,2 | %9
[M:4/2] D,4 E,4 A,,4 E,/E,/D,/C,/ B,,2 |[M:2/2] D,/D,/C,/B,,/ A,,2 _B,,3 B,, | %11
 A,,2 D,2 G,,2 C,>B,, | A,,2 F,,/G,,/A,,/B,,/C,D, C,2 | F,,F,,_B,,B,,/A,,/G,,D, z D, | %14
 _B,,4 A,,2 A,,A,, | D,2 G,,2 C,A,, E,2 | A,,2 D,2 ^C, D,2 C, | D,2 D,2 B,,4 | %18
 A,,2 D,2 ^C, D,2 C, |[M:4/2] D,2 D,2 B,,4 A,,4 D,4 | G,,2 G,E,F,>E,D,C,/B,,/ A,,4 D,4 | %21
 G,,4 C,2 F,2 E,4 A,,4 |[M:6/2] D,4 G,2 ^F,2 G,4 G,,4 D,8 |] %23

